X: 46
T: Don Tremain's Reel
Z: John Chambers <jc@eddie.mit.edu> http://eddie.mit.edu/~jc/music/
R: reel
M: C|
L: 1/8
K: D
|: FG || "D"ABAG FADF | "G"GFGA BcdB | "A7"Aceg fcec | "D"dAFB "A7"A2FG |
| "D"ABAG FADF | "G"GFGA BcdB | "A7"Aceg fcec | "D"d6 :|
|: ef || "G"gage "D"fgfd | "A7"efec "D"dAef | "G"gage "D"fgfd | "A7"ea2b a2 ef |
| "G"gage "D"fgfd | "A7"efec "D"dAFD | "G"G2 EG "D"FEDF | "A7"EDCE "D"D2 :|


